X:335
T: Sweet Transports
N: O'Farrell's Pocket Companion v.4 (Sky ed. p.147)
M: C
L: 1/8
Q: 120 %"slow"
R: blank
K: D
F/G/| A>FAd gfed| Bc/d/ AF {F}E3A| AFAd gfed| Bc/d/ AF D>ED :|
f| gfed B2 cd| A>ddf f2 e>f| ecBA ^G/F/d/c/ e/d/c/B/| A2 Be A3F|
G>AGB AFd>c| BAGF F2 EF/G/| AFAd fg {f}Ha3A| Bc/d/ AF DEDF|
E/D/E/F/ D>E D/F/A/d/ A/d/f/a/| af e/d/e/f/ d3 :|
